packages/tokens/icons/layeringTechniques/size24Px.svg

<svg viewBox="0 0 24 24" fill="none" xmlns="http://www.w3.org/2000/svg" width="1em" height="1em"><path d="M21.5 15.6001L12.4657 20.355C12.1742 20.5084 11.8258 20.5084 11.5343 20.355L2.5 15.6001" stroke="currentColor" stroke-linecap="round"/><path d="M21.5 12.5L12.4657 17.2549C12.1742 17.4083 11.8258 17.4083 11.5343 17.2549L2.5 12.5" stroke="currentColor" stroke-linecap="round"/><path d="M11.5608 4.77128C11.8379 4.63579 12.1621 4.63579 12.4392 4.77128L21.1928 9.05081C21.5667 9.23358 21.5667 9.76642 21.1928 9.94919L12.4392 14.2287C12.1621 14.3642 11.8379 14.3642 11.5608 14.2287L2.80721 9.94919C2.43335 9.76642 2.43335 9.23358 2.80721 9.05081L11.5608 4.77128Z" stroke="currentColor" stroke-linecap="round"/></svg>

<svg xmlns="http://www.w3.org/2000/svg" fill="none" viewBox="0 0 24 24" width="1em" height="1em"><path stroke="currentColor" stroke-linecap="round" d="m21.5 15.6-9.034 4.755a1 1 0 0 1-.932 0L2.5 15.6"/><path stroke="currentColor" stroke-linecap="round" d="m21.5 12.5-9.034 4.755a1 1 0 0 1-.932 0L2.5 12.5"/><path stroke="currentColor" stroke-linecap="round" d="M11.56 4.771a1 1 0 0 1 .88 0l8.753 4.28a.5.5 0 0 1 0 .898l-8.754 4.28a1 1 0 0 1-.878 0l-8.754-4.28a.5.5 0 0 1 0-.898l8.754-4.28Z"/></svg>
